src/lib/packages/icons/src/assets/line/percent-tag.svg

<svg width="24" height="24" viewBox="0 0 24 24" fill="none" xmlns="http://www.w3.org/2000/svg">
<path d="M8 15.25C7.808 15.25 7.61597 15.177 7.46997 15.03C7.17697 14.737 7.17697 14.262 7.46997 13.969L15.47 5.96899C15.763 5.67599 16.238 5.67599 16.531 5.96899C16.824 6.26199 16.824 6.73703 16.531 7.03003L8.53101 15.03C8.38401 15.177 8.192 15.25 8 15.25ZM16.75 13.25C16.75 12.147 15.853 11.25 14.75 11.25C13.647 11.25 12.75 12.147 12.75 13.25C12.75 14.353 13.647 15.25 14.75 15.25C15.853 15.25 16.75 14.353 16.75 13.25ZM15.25 13.25C15.25 13.526 15.026 13.75 14.75 13.75C14.474 13.75 14.25 13.526 14.25 13.25C14.25 12.974 14.474 12.75 14.75 12.75C15.026 12.75 15.25 12.974 15.25 13.25ZM11.25 7.75C11.25 6.647 10.353 5.75 9.25 5.75C8.147 5.75 7.25 6.647 7.25 7.75C7.25 8.853 8.147 9.75 9.25 9.75C10.353 9.75 11.25 8.853 11.25 7.75ZM9.75 7.75C9.75 8.026 9.526 8.25 9.25 8.25C8.974 8.25 8.75 8.026 8.75 7.75C8.75 7.474 8.974 7.25 9.25 7.25C9.526 7.25 9.75 7.474 9.75 7.75ZM13.934 21.7841L15.434 19.7841C15.606 19.5551 15.88 19.417 16.167 19.417H17.667C20.3 19.417 21.75 17.967 21.75 15.334V5.33398C21.75 2.70098 20.3 1.25098 17.667 1.25098H6.33398C3.70098 1.25098 2.25098 2.70098 2.25098 5.33398V15.334C2.25098 17.967 3.70098 19.417 6.33398 19.417H7.83398C8.12098 19.417 8.39502 19.5541 8.56702 19.7841L10.067 21.7841C10.527 22.3981 11.233 22.75 12 22.75C12.767 22.75 13.473 22.3981 13.934 21.7841ZM17.667 2.75C19.478 2.75 20.25 3.52201 20.25 5.33301V15.333C20.25 17.144 19.478 17.916 17.667 17.916H16.167C15.41 17.916 14.688 18.2781 14.234 18.8831L12.734 20.8831C12.383 21.3491 11.616 21.3491 11.267 20.8831L9.76703 18.8831C9.31303 18.2781 8.59098 17.916 7.83398 17.916H6.33398C4.52298 17.916 3.75098 17.144 3.75098 15.333V5.33301C3.75098 3.52201 4.52298 2.75 6.33398 2.75H17.667Z" fill="currentColor"/>
</svg>

<svg xmlns="http://www.w3.org/2000/svg" width="24" height="24" fill="none"><path fill="currentColor" d="M8 15.25a.75.75 0 0 1-.53-1.281l8-8a.75.75 0 1 1 1.061 1.061l-8 8a.748.748 0 0 1-.531.22Zm8.75-2c0-1.103-.897-2-2-2s-2 .897-2 2 .897 2 2 2 2-.897 2-2Zm-1.5 0a.5.5 0 1 1-1 0 .5.5 0 0 1 1 0Zm-4-5.5c0-1.103-.897-2-2-2s-2 .897-2 2 .897 2 2 2 2-.897 2-2Zm-1.5 0a.5.5 0 1 1-1 0 .5.5 0 0 1 1 0Zm4.184 14.034 1.5-2a.922.922 0 0 1 .733-.367h1.5c2.633 0 4.083-1.45 4.083-4.083v-10c0-2.633-1.45-4.083-4.083-4.083H6.334c-2.633 0-4.083 1.45-4.083 4.083v10c0 2.633 1.45 4.083 4.083 4.083h1.5a.92.92 0 0 1 .733.367l1.5 2c.46.614 1.166.966 1.933.966a2.4 2.4 0 0 0 1.934-.966ZM17.667 2.75c1.811 0 2.583.772 2.583 2.583v10c0 1.811-.772 2.583-2.583 2.583h-1.5c-.757 0-1.479.362-1.933.967l-1.5 2c-.351.466-1.118.466-1.467 0l-1.5-2a2.428 2.428 0 0 0-1.933-.967h-1.5c-1.811 0-2.583-.772-2.583-2.583v-10c0-1.811.772-2.583 2.583-2.583h11.333Z"/></svg>
